app/component-library/components/Icons/Icon/assets/bookmark.svg

<svg width="24" height="24" viewBox="0 0 24 24" fill="none" xmlns="http://www.w3.org/2000/svg">
<path d="M22.2812 7.80983V16.1898C22.2812 19.3998 19.6813 21.9998 16.4713 21.9998H8.09125C4.88125 21.9998 2.28125 19.3998 2.28125 16.1898V7.80983C2.28125 5.31983 3.30125 3.50983 5.11125 2.62983C5.77125 2.30983 6.53125 2.80983 6.53125 3.53983V12.4198C6.53125 13.6098 6.99125 14.5598 7.82125 15.0398C8.66125 15.5098 9.72125 15.4098 10.8013 14.7598L12.1012 13.9798C12.1812 13.9398 12.3812 13.9398 12.4412 13.9698L13.7612 14.7598C14.4812 15.1898 15.1012 15.3298 15.6012 15.3298C16.1213 15.3298 16.5212 15.1698 16.7612 15.0298C17.5712 14.5598 18.0312 13.6098 18.0312 12.4198V3.53983C18.0312 2.80983 18.8013 2.30983 19.4513 2.62983C21.2612 3.50983 22.2812 5.31983 22.2812 7.80983Z" fill="currentColor"/>
<path d="M15.5312 2C16.0813 2 16.5312 2.45 16.5312 3V12.42C16.5312 13.06 16.3412 13.54 16.0112 13.73C15.6712 13.93 15.1312 13.83 14.5312 13.47L13.2113 12.68C12.7013 12.37 11.8612 12.37 11.3512 12.68L10.0312 13.47C9.43125 13.83 8.89125 13.92 8.55125 13.73C8.22125 13.54 8.03125 13.06 8.03125 12.42V3C8.03125 2.45 8.48125 2 9.03125 2H15.5312Z" fill="currentColor"/>
</svg>

<svg xmlns="http://www.w3.org/2000/svg" width="24" height="24" viewBox="0 0 24 24" fill="none"><path d="M22.281 7.81v8.38c0 3.21-2.6 5.81-5.81 5.81h-8.38c-3.21 0-5.81-2.6-5.81-5.81V7.81c0-2.49 1.02-4.3 2.83-5.18.66-.32 1.42.18 1.42.91v8.88c0 1.19.46 2.14 1.29 2.62.84.47 1.9.37 2.98-.28l1.3-.78c.08-.04.28-.04.34-.01l1.32.79c.72.43 1.34.57 1.84.57.52 0 .92-.16 1.16-.3.81-.47 1.27-1.42 1.27-2.61V3.54c0-.73.77-1.23 1.42-.91 1.81.88 2.83 2.69 2.83 5.18z" fill="currentColor"/><path d="M15.531 2c.55 0 1 .45 1 1v9.42c0 .64-.19 1.12-.52 1.31-.34.2-.88.1-1.48-.26l-1.32-.79c-.51-.31-1.35-.31-1.86 0l-1.32.79c-.6.36-1.14.45-1.48.26-.33-.19-.52-.67-.52-1.31V3c0-.55.45-1 1-1h6.5z" fill="currentColor"/></svg>
